public/shapes/items/103.svg

<?xml version="1.0" encoding="UTF-8"?>
<svg width="61.45px" height="72.6px" version="1.1" xmlns="http://www.w3.org/2000/svg" xmlns:cc="http://creativecommons.org/ns#" xmlns:dc="http://purl.org/dc/elements/1.1/" xmlns:rdf="http://www.w3.org/1999/02/22-rdf-syntax-ns#">
 <metadata>
  <rdf:RDF>
   <cc:Work rdf:about="">
    <dc:format>image/svg+xml</dc:format>
    <dc:type rdf:resource="http://purl.org/dc/dcmitype/StillImage"/>
    <dc:title/>
   </cc:Work>
  </rdf:RDF>
 </metadata>
 <g transform="translate(30.7 36.3)" fill-rule="evenodd">
  <path d="m-25.4-28.3 2.35-2.7h46.6l2.15 2.35v57.35l-2.5 2.75h-46.9l-1.7-2.25v-57.5" fill="#fff"/>
  <g>
   <path d="m-18.35-21.3 1.3-0.3q1.05 0 1.6 0.7t0.55 2.1v4.65h-2.45v-4q0-0.65-0.25-1-0.25-0.25-0.6-0.25-0.5 0-0.7 0.35l-0.3 1.4v3.5h-2.45v-7.3h2.3v1.2l1-1.05"/>
   <path d="m-11.5-21.45v7.3h-2.45v-7.3h2.45"/>
   <path d="m-11.5-24.2v1.9h-2.45v-1.9h2.45"/>
   <path d="m-7.25-21.35 1.2-0.25 1.2 0.3 0.75 0.9 1.05-0.95 1.15-0.25q1.1 0 1.6 0.7 0.6 0.7 0.6 2.15v4.6h-2.45v-4.15q0-0.5-0.15-0.75-0.3-0.4-0.65-0.4-0.4 0-0.7 0.4l-0.25 1.15v3.75h-2.45v-4l-0.05-0.65-0.25-0.45-0.45-0.2q-0.45 0-0.7 0.4l-0.3 1.2v3.7h-2.45v-7.3h2.3v1.05l1-0.95"/>
   <path d="m5.7-17.85-0.3-1.25q-0.25-0.4-0.7-0.4-0.55 0-0.8 0.4-0.3 0.45-0.3 1.3 0 1 0.3 1.35 0.3 0.45 0.75 0.45l0.75-0.45q0.3-0.35 0.3-1.4m-4.55 3.7v-10.05h2.45v3.45q0.35-0.45 0.85-0.65l1-0.2q1.2 0 1.95 0.95 0.75 1 0.75 2.75 0 1.25-0.35 2.15-0.4 0.95-0.95 1.35-0.6 0.45-1.4 0.45-0.65 0-1.15-0.35l-0.9-0.9v1.05h-2.25"/>
   <path d="m13-21.45h2.45v7.3h-2.3v-1.15l-1.05 1.05q-0.5 0.3-1.25 0.3-1 0-1.6-0.7-0.55-0.7-0.55-2.15v-4.65h2.45v4.05q0 0.7 0.25 0.95 0.15 0.3 0.6 0.3t0.7-0.4q0.3-0.35 0.3-1.35v-3.55"/>
   <path d="m16.5-20.55 1-0.8 1.75-0.25 1.7 0.2q0.4 0.1 0.9 0.6l0.6 1.15-2.35 0.25-0.3-0.5-0.7-0.25-0.6 0.2-0.2 0.4q0 0.25 0.25 0.4l1.05 0.25 1.85 0.45 0.9 0.8 0.3 1.15-0.3 1.25q-0.35 0.55-1.05 0.95l-2 0.35q-1.75 0-2.45-0.6-0.8-0.55-0.95-1.6l2.4-0.25q0.15 0.5 0.45 0.7l0.7 0.2 0.75-0.25 0.2-0.4-0.25-0.5-1.05-0.3-1.8-0.45q-0.5-0.25-0.8-0.75-0.35-0.5-0.35-1.15 0-0.75 0.35-1.25"/>
   <path d="m1.1 21.4q0 0.55 0.35 0.9l0.9 0.35q0.55 0 0.9-0.35 0.4-0.4 0.4-0.9h0.8v1q0 0.9 0.75 1.55 0.75 0.6 1.8 0.6t1.8-0.6q0.75-0.65 0.75-1.55v-3.55q0-1.05-0.6-1.8-0.65-0.75-1.5-0.75h-6.85q-0.9 0-1.5 0.75-0.65 0.75-0.65 1.8t0.65 1.8q0.6 0.75 1.5 0.75h0.5m-1.55-11.1q-0.3-0.3-0.7-0.3-0.75 0-1.1 0.55l-3.1 3.1q-1.75-0.1-2.8 1.05-1.05 1.05-1 2.55 0 1.5 1.05 2.6 1.1 1.1 2.6 1.1 1.55 0 2.6-1.05 1.15-1.15 1-2.8l3.1-3.1 0.55-1.1-0.3-0.7q-0.3-0.35-0.75-0.35-0.55 0.05-1.1 0.6l-2.45 2.45-0.3-0.3 2.45-2.45q0.55-0.55 0.55-1.15 0-0.4-0.3-0.7m-9.5 1.35q0-0.9-0.7-1.55-0.75-0.65-1.8-0.65t-1.8 0.65-0.75 1.55v10.7q0 0.9 0.75 1.55t1.8 0.65 1.8-0.65q0.7-0.65 0.7-1.55v-10.7m-0.55-14.45q-0.3-0.3-0.75-0.3-0.4 0-0.7 0.3-0.4 0.4-0.4 1.2v3.45h-0.4v-3.45q0-0.8-0.4-1.2l-0.75-0.3-0.7 0.3q-0.4 0.4-0.4 1.2v4.35q-1.25 1.1-1.25 2.7 0 1.5 1.1 2.55 1.05 1.05 2.6 1.05t2.6-1.05q1.1-1.05 1.1-2.55 0-1.7-1.25-2.7v-4.4q0-0.75-0.4-1.15m21.65 12.9q-0.75 0.65-0.75 1.55v10.7q0 0.9 0.75 1.55 0.7 0.65 1.75 0.65 1.1 0 1.8-0.65 0.75-0.65 0.75-1.55v-10.7q0-0.9-0.75-1.55-0.7-0.65-1.8-0.65-1.05 0-1.75 0.65m4.05-12.9-0.75-0.3q-0.45 0-0.7 0.3-0.4 0.35-0.4 1.2v3.45h-0.45v-3.45q0-0.85-0.4-1.2-0.2-0.3-0.7-0.3l-0.75 0.3q-0.35 0.35-0.35 1.2v4.35q-1.25 1.1-1.25 2.7 0 1.5 1.1 2.55 1.05 1.05 2.6 1.05t2.6-1.05q1.1-1.05 1.1-2.55 0-1.65-1.3-2.7v-4.4q0-0.8-0.35-1.15m-36.85 29.35v-32.7h43.9v32.7h-43.9"/>
   <path d="m-23.05-31-2.35 2.7v57.5l1.7 2.25h46.9l2.5-2.75v-57.35l-2.15-2.35h-46.6m44.75-2.05-1.85-2.05 3.55-1.2 2.9 3.25h1.45v1.65l3 3.4-1.9 2.85-1.1-1.25v54.55l2.05 2.2-2.05 2.05v1.1h-1.1l-2.75 2.8-3.35-1.9 0.8-0.9h-43.5l0.5 0.65-2.6 1.9-2.1-2.55h-1.1v-1.3l-2.3-2.8 2.3-2.75v-52.55l-0.85 1-2.4-4.05 3.25-3v-1.1h1.2l2.2-2.05 3.1 1.65-0.35 0.4h43"/>
   <path d="m21.65-12.25v0.95h-43v-0.95h43"/>
  </g>
 </g>
</svg>

<?xml version="1.0" encoding="UTF-8" standalone="no"?>
<svg xmlns:xlink="http://www.w3.org/1999/xlink" height="72.6px" width="61.45px" xmlns="http://www.w3.org/2000/svg">
  <g transform="matrix(1.0, 0.0, 0.0, 1.0, 30.7, 36.3)">
    <path d="M4.65 -16.0 Q4.2 -16.0 3.9 -16.45 3.6 -16.8 3.6 -17.8 3.6 -18.65 3.9 -19.1 4.15 -19.5 4.7 -19.5 5.15 -19.5 5.4 -19.1 L5.7 -17.85 Q5.7 -16.8 5.4 -16.45 L4.65 -16.0" fill="#ffffff" fill-rule="evenodd" stroke="none"/>
    <path d="M-21.65 -6.15 L-21.65 26.55 22.25 26.55 22.25 -6.15 -21.65 -6.15 M-25.4 -28.3 L-23.05 -31.0 23.55 -31.0 25.7 -28.65 25.7 28.7 23.2 31.45 -23.7 31.45 -25.4 29.2 -25.4 -28.3 M21.65 -11.3 L21.65 -12.25 -21.35 -12.25 -21.35 -11.3 21.65 -11.3 M21.85 -20.8 Q21.35 -21.3 20.95 -21.4 L19.25 -21.6 17.5 -21.35 16.5 -20.55 Q16.15 -20.05 16.15 -19.3 16.15 -18.65 16.5 -18.15 16.8 -17.65 17.3 -17.4 L19.1 -16.95 20.15 -16.65 20.4 -16.15 20.2 -15.75 19.45 -15.5 18.75 -15.7 Q18.45 -15.9 18.3 -16.4 L15.9 -16.15 Q16.05 -15.1 16.85 -14.55 17.55 -13.95 19.3 -13.95 L21.3 -14.3 Q22.0 -14.7 22.35 -15.25 L22.65 -16.5 22.35 -17.65 21.45 -18.45 19.6 -18.9 18.55 -19.15 Q18.3 -19.3 18.3 -19.55 L18.5 -19.95 19.1 -20.15 19.8 -19.9 20.1 -19.4 22.45 -19.65 21.85 -20.8 M15.45 -21.45 L13.0 -21.45 13.0 -17.9 Q13.0 -16.9 12.7 -16.55 12.45 -16.15 12.0 -16.15 11.55 -16.15 11.4 -16.45 11.15 -16.7 11.15 -17.4 L11.15 -21.45 8.7 -21.45 8.7 -16.8 Q8.7 -15.35 9.25 -14.65 9.85 -13.95 10.85 -13.95 11.6 -13.95 12.1 -14.25 L13.15 -15.3 13.15 -14.15 15.45 -14.15 15.45 -21.45 M1.15 -24.2 L1.15 -14.15 3.4 -14.15 3.4 -15.2 4.3 -14.3 Q4.8 -13.95 5.45 -13.95 6.25 -13.95 6.85 -14.4 7.4 -14.8 7.8 -15.75 8.15 -16.65 8.15 -17.9 8.15 -19.65 7.4 -20.65 6.65 -21.6 5.45 -21.6 L4.45 -21.4 Q3.95 -21.2 3.6 -20.75 L3.6 -24.2 1.15 -24.2 M-11.5 -21.45 L-13.95 -21.45 -13.95 -14.15 -11.5 -14.15 -11.5 -21.45 M-17.05 -21.6 L-18.35 -21.3 -19.35 -20.25 -19.35 -21.45 -21.65 -21.45 -21.65 -14.15 -19.2 -14.15 -19.2 -17.65 -18.9 -19.05 Q-18.7 -19.4 -18.2 -19.4 -17.85 -19.4 -17.6 -19.15 -17.35 -18.8 -17.35 -18.15 L-17.35 -14.15 -14.9 -14.15 -14.9 -18.8 Q-14.9 -20.2 -15.45 -20.9 -16.0 -21.6 -17.05 -21.6 M-13.95 -24.2 L-13.95 -22.3 -11.5 -22.3 -11.5 -24.2 -13.95 -24.2 M-0.3 -20.9 Q-0.8 -21.6 -1.9 -21.6 L-3.05 -21.35 -4.1 -20.4 -4.85 -21.3 -6.05 -21.6 -7.25 -21.35 -8.25 -20.4 -8.25 -21.45 -10.55 -21.45 -10.55 -14.15 -8.1 -14.15 -8.1 -17.85 -7.8 -19.05 Q-7.55 -19.45 -7.1 -19.45 L-6.65 -19.25 -6.4 -18.8 -6.35 -18.15 -6.35 -14.15 -3.9 -14.15 -3.9 -17.9 -3.65 -19.05 Q-3.35 -19.45 -2.95 -19.45 -2.6 -19.45 -2.3 -19.05 -2.15 -18.8 -2.15 -18.3 L-2.15 -14.15 0.3 -14.15 0.3 -18.75 Q0.3 -20.2 -0.3 -20.9" fill="#ffffff" fill-rule="evenodd" stroke="none"/>
    <path d="M-18.35 -21.3 L-17.05 -21.6 Q-16.0 -21.6 -15.45 -20.9 -14.9 -20.2 -14.9 -18.8 L-14.9 -14.15 -17.35 -14.15 -17.35 -18.15 Q-17.35 -18.8 -17.6 -19.15 -17.85 -19.4 -18.2 -19.4 -18.7 -19.4 -18.9 -19.05 L-19.2 -17.65 -19.2 -14.15 -21.65 -14.15 -21.65 -21.45 -19.35 -21.45 -19.35 -20.25 -18.35 -21.3" fill="#000000" fill-rule="evenodd" stroke="none"/>
    <path d="M-11.5 -21.45 L-11.5 -14.15 -13.95 -14.15 -13.95 -21.45 -11.5 -21.45" fill="#000000" fill-rule="evenodd" stroke="none"/>
    <path d="M-11.5 -24.2 L-11.5 -22.3 -13.95 -22.3 -13.95 -24.2 -11.5 -24.2" fill="#000000" fill-rule="evenodd" stroke="none"/>
    <path d="M-7.25 -21.35 L-6.05 -21.6 -4.85 -21.3 -4.1 -20.4 -3.05 -21.35 -1.9 -21.6 Q-0.8 -21.6 -0.3 -20.9 0.3 -20.2 0.3 -18.75 L0.3 -14.15 -2.15 -14.15 -2.15 -18.3 Q-2.15 -18.8 -2.3 -19.05 -2.6 -19.45 -2.95 -19.45 -3.35 -19.45 -3.65 -19.05 L-3.9 -17.9 -3.9 -14.15 -6.35 -14.15 -6.35 -18.15 -6.4 -18.8 -6.65 -19.25 -7.1 -19.45 Q-7.55 -19.45 -7.8 -19.05 L-8.1 -17.85 -8.1 -14.15 -10.55 -14.15 -10.55 -21.45 -8.25 -21.45 -8.25 -20.4 -7.25 -21.35" fill="#000000" fill-rule="evenodd" stroke="none"/>
    <path d="M5.7 -17.85 L5.4 -19.1 Q5.15 -19.5 4.7 -19.5 4.15 -19.5 3.9 -19.1 3.6 -18.65 3.6 -17.8 3.6 -16.8 3.9 -16.45 4.2 -16.0 4.65 -16.0 L5.4 -16.45 Q5.7 -16.8 5.7 -17.85 M1.15 -14.15 L1.15 -24.2 3.6 -24.2 3.6 -20.75 Q3.95 -21.2 4.45 -21.4 L5.45 -21.6 Q6.65 -21.6 7.4 -20.65 8.15 -19.65 8.15 -17.9 8.15 -16.65 7.8 -15.75 7.4 -14.8 6.85 -14.4 6.25 -13.95 5.45 -13.95 4.8 -13.95 4.3 -14.3 L3.4 -15.2 3.4 -14.15 1.15 -14.15" fill="#000000" fill-rule="evenodd" stroke="none"/>
    <path d="M13.0 -21.45 L15.45 -21.45 15.45 -14.15 13.15 -14.15 13.15 -15.3 12.1 -14.25 Q11.6 -13.95 10.85 -13.95 9.85 -13.95 9.25 -14.65 8.7 -15.35 8.7 -16.8 L8.7 -21.45 11.15 -21.45 11.15 -17.4 Q11.15 -16.7 11.4 -16.45 11.55 -16.15 12.0 -16.15 12.45 -16.15 12.7 -16.55 13.0 -16.9 13.0 -17.9 L13.0 -21.45" fill="#000000" fill-rule="evenodd" stroke="none"/>
    <path d="M16.5 -20.55 L17.5 -21.35 19.25 -21.6 20.95 -21.4 Q21.35 -21.3 21.85 -20.8 L22.45 -19.65 20.1 -19.4 19.8 -19.9 19.1 -20.15 18.5 -19.95 18.3 -19.55 Q18.3 -19.3 18.55 -19.15 L19.6 -18.9 21.45 -18.45 22.35 -17.65 22.65 -16.5 22.35 -15.25 Q22.0 -14.7 21.3 -14.3 L19.3 -13.95 Q17.55 -13.95 16.85 -14.55 16.05 -15.1 15.9 -16.15 L18.3 -16.4 Q18.45 -15.9 18.75 -15.7 L19.45 -15.5 20.2 -15.75 20.4 -16.15 20.15 -16.65 19.1 -16.95 17.3 -17.4 Q16.8 -17.65 16.5 -18.15 16.15 -18.65 16.15 -19.3 16.15 -20.05 16.5 -20.55" fill="#000000" fill-rule="evenodd" stroke="none"/>
    <path d="M1.1 21.4 Q1.1 21.95 1.45 22.3 L2.35 22.65 Q2.9 22.65 3.25 22.3 3.65 21.9 3.65 21.4 L4.45 21.4 4.45 22.4 Q4.45 23.3 5.2 23.95 5.95 24.55 7.0 24.55 8.05 24.55 8.8 23.95 9.55 23.3 9.55 22.4 L9.55 18.85 Q9.55 17.8 8.95 17.05 8.3 16.3 7.45 16.3 L0.6 16.3 Q-0.3 16.3 -0.9 17.05 -1.55 17.8 -1.55 18.85 -1.55 19.9 -0.9 20.65 -0.3 21.4 0.6 21.4 L1.1 21.4 M-0.45 10.3 Q-0.75 10.0 -1.15 10.0 -1.9 10.0 -2.25 10.55 L-5.35 13.65 Q-7.1 13.55 -8.15 14.7 -9.2 15.75 -9.15 17.25 -9.15 18.75 -8.1 19.85 -7.0 20.95 -5.5 20.95 -3.95 20.95 -2.9 19.9 -1.75 18.75 -1.9 17.1 L1.2 14.0 1.75 12.9 1.45 12.2 Q1.15 11.85 0.7 11.85 0.15 11.9 -0.4 12.45 L-2.85 14.9 -3.15 14.6 -0.7 12.15 Q-0.15 11.6 -0.15 11.0 -0.15 10.6 -0.45 10.3 M-9.95 11.65 Q-9.95 10.75 -10.65 10.1 -11.4 9.45 -12.45 9.45 -13.5 9.45 -14.25 10.1 -15.0 10.75 -15.0 11.65 L-15.0 22.35 Q-15.0 23.25 -14.25 23.9 -13.5 24.55 -12.45 24.55 -11.4 24.55 -10.65 23.9 -9.95 23.25 -9.95 22.35 L-9.95 11.65 M-10.5 -2.8 Q-10.8 -3.1 -11.25 -3.1 -11.65 -3.1 -11.95 -2.8 -12.35 -2.4 -12.35 -1.6 L-12.35 1.85 -12.75 1.85 -12.75 -1.6 Q-12.75 -2.4 -13.15 -2.8 L-13.9 -3.1 -14.6 -2.8 Q-15.0 -2.4 -15.0 -1.6 L-15.0 2.75 Q-16.25 3.85 -16.25 5.45 -16.25 6.95 -15.15 8.0 -14.1 9.05 -12.55 9.05 -11.0 9.05 -9.95 8.0 -8.85 6.95 -8.85 5.45 -8.85 3.75 -10.1 2.75 L-10.1 -1.65 Q-10.1 -2.4 -10.5 -2.8 M11.15 10.1 Q10.4 10.75 10.4 11.65 L10.4 22.35 Q10.4 23.25 11.15 23.9 11.85 24.55 12.9 24.55 14.0 24.55 14.7 23.9 15.45 23.25 15.45 22.35 L15.45 11.65 Q15.45 10.75 14.7 10.1 14.0 9.45 12.9 9.45 11.85 9.45 11.15 10.1 M15.2 -2.8 L14.45 -3.1 Q14.0 -3.1 13.75 -2.8 13.35 -2.45 13.35 -1.6 L13.35 1.85 12.9 1.85 12.9 -1.6 Q12.9 -2.45 12.5 -2.8 12.3 -3.1 11.8 -3.1 L11.05 -2.8 Q10.7 -2.45 10.7 -1.6 L10.7 2.75 Q9.45 3.85 9.45 5.45 9.45 6.95 10.55 8.0 11.6 9.05 13.15 9.05 14.7 9.05 15.75 8.0 16.85 6.95 16.85 5.45 16.85 3.8 15.55 2.75 L15.55 -1.65 Q15.55 -2.45 15.2 -2.8 M-21.65 26.55 L-21.65 -6.15 22.25 -6.15 22.25 26.55 -21.65 26.55" fill="#000000" fill-rule="evenodd" stroke="none"/>
    <path d="M-23.05 -31.0 L-25.4 -28.3 -25.4 29.2 -23.7 31.45 23.2 31.45 25.7 28.7 25.7 -28.65 23.55 -31.0 -23.05 -31.0 M21.7 -33.05 L19.85 -35.1 23.4 -36.3 26.3 -33.05 27.75 -33.05 27.75 -31.4 30.75 -28.0 28.85 -25.15 27.75 -26.4 27.75 28.15 29.8 30.35 27.75 32.4 27.75 33.5 26.65 33.5 23.9 36.3 20.55 34.4 21.35 33.5 -22.15 33.5 -21.65 34.15 -24.25 36.05 -26.35 33.5 -27.45 33.5 -27.45 32.2 -29.75 29.4 -27.45 26.65 -27.45 -25.9 -28.3 -24.9 -30.7 -28.95 -27.45 -31.95 -27.45 -33.05 -26.25 -33.05 -24.05 -35.1 -20.95 -33.45 -21.3 -33.05 21.7 -33.05" fill="#000000" fill-rule="evenodd" stroke="none"/>
    <path d="M-12.45 9.45 Q-11.4 9.45 -10.65 10.1 -9.95 10.75 -9.95 11.65 L-9.95 22.35 Q-9.95 23.25 -10.65 23.9 -11.4 24.55 -12.45 24.55 -13.5 24.55 -14.25 23.9 -15.0 23.25 -15.0 22.35 L-15.0 11.65 Q-15.0 10.75 -14.25 10.1 -13.5 9.45 -12.45 9.45" fill="#ffffff" fill-rule="evenodd" stroke="none"/>
    <path d="M12.9 9.45 Q14.0 9.45 14.7 10.1 15.45 10.75 15.45 11.65 L15.45 22.35 Q15.45 23.25 14.7 23.9 14.0 24.55 12.9 24.55 11.85 24.55 11.15 23.9 10.4 23.25 10.4 22.35 L10.4 11.65 Q10.4 10.75 11.15 10.1 11.85 9.45 12.9 9.45" fill="#ffffff" fill-rule="evenodd" stroke="none"/>
    <path d="M-1.55 18.85 Q-1.55 17.8 -0.9 17.05 -0.3 16.3 0.6 16.3 L7.45 16.3 Q8.3 16.3 8.95 17.05 9.55 17.8 9.55 18.85 L9.55 22.4 Q9.55 23.3 8.8 23.95 8.05 24.55 7.0 24.55 5.95 24.55 5.2 23.95 4.45 23.3 4.45 22.4 L4.45 21.4 3.65 21.4 Q3.65 21.9 3.25 22.3 2.9 22.65 2.35 22.65 L1.45 22.3 Q1.1 21.95 1.1 21.4 L0.6 21.4 Q-0.3 21.4 -0.9 20.65 -1.55 19.9 -1.55 18.85" fill="#ffffff" fill-rule="evenodd" stroke="none"/>
    <path d="M-11.25 -3.1 Q-10.8 -3.1 -10.5 -2.8 -10.1 -2.4 -10.1 -1.65 L-10.1 2.75 Q-8.85 3.75 -8.85 5.45 -8.85 6.95 -9.95 8.0 -11.0 9.05 -12.55 9.05 -14.1 9.05 -15.15 8.0 -16.25 6.95 -16.25 5.45 -16.25 3.85 -15.0 2.75 L-15.0 -1.6 Q-15.0 -2.4 -14.6 -2.8 L-13.9 -3.1 -13.15 -2.8 Q-12.75 -2.4 -12.75 -1.6 L-12.75 1.85 -12.35 1.85 -12.35 -1.6 Q-12.35 -2.4 -11.95 -2.8 -11.65 -3.1 -11.25 -3.1" fill="#ffffff" fill-rule="evenodd" stroke="none"/>
    <path d="M14.45 -3.1 L15.2 -2.8 Q15.55 -2.45 15.55 -1.65 L15.55 2.75 Q16.85 3.8 16.85 5.45 16.85 6.95 15.75 8.0 14.7 9.05 13.15 9.05 11.6 9.05 10.55 8.0 9.45 6.95 9.45 5.45 9.45 3.85 10.7 2.75 L10.7 -1.6 Q10.7 -2.45 11.05 -2.8 L11.8 -3.1 Q12.3 -3.1 12.5 -2.8 12.9 -2.45 12.9 -1.6 L12.9 1.85 13.35 1.85 13.35 -1.6 Q13.35 -2.45 13.75 -2.8 14.0 -3.1 14.45 -3.1" fill="#ffffff" fill-rule="evenodd" stroke="none"/>
    <path d="M-1.15 10.0 Q-0.75 10.0 -0.45 10.3 -0.15 10.6 -0.15 11.0 -0.15 11.6 -0.7 12.15 L-3.15 14.6 -2.85 14.9 -0.4 12.45 Q0.15 11.9 0.7 11.85 1.15 11.85 1.45 12.2 L1.75 12.9 1.2 14.0 -1.9 17.1 Q-1.75 18.75 -2.9 19.9 -3.95 20.95 -5.5 20.95 -7.0 20.95 -8.1 19.85 -9.15 18.75 -9.15 17.25 -9.2 15.75 -8.15 14.7 -7.1 13.55 -5.35 13.65 L-2.25 10.55 Q-1.9 10.0 -1.15 10.0" fill="#ffffff" fill-rule="evenodd" stroke="none"/>
    <path d="M21.65 -12.25 L21.65 -11.3 -21.35 -11.3 -21.35 -12.25 21.65 -12.25" fill="#000000" fill-rule="evenodd" stroke="none"/>
  </g>
</svg>
